static/assets/images/networks/manta-pacific.svg

<svg width="256" height="256" viewBox="0 0 256 256" fill="none" xmlns="http://www.w3.org/2000/svg">
<path d="M128 256C198.692 256 256 198.692 256 128C256 57.3075 198.692 0 128 0C57.3075 0 0 57.3075 0 128C0 198.692 57.3075 256 128 256Z" fill="black"/>
<path fill-rule="evenodd" clip-rule="evenodd" d="M79.1584 194.053C59.1265 179.083 46.1579 155.182 46.1579 128.25C46.1579 82.912 82.9131 46.1579 128.249 46.1579C165.668 46.1579 206.53 68.5198 216.411 102.767C205.371 64.4963 170.085 36.5 128.251 36.5C77.5793 36.5 36.5 77.5789 36.5 128.25C36.5 178.923 77.5793 220 128.249 220C178.923 220 220 178.923 220 128.25V123.421H214.958L214.286 123.411C210.589 123.343 206.895 123.151 203.211 122.834C196.327 122.235 188.476 121.068 183.129 118.932C174.527 115.496 169.67 110.941 164.12 105.612L163.8 105.303C158.24 99.964 151.993 93.9645 141.169 88.8709C130.508 83.8527 118.717 84.6581 110.051 86.441C106.368 87.2037 102.745 88.2288 99.2078 89.5083C97.8681 89.9931 96.7948 90.4258 96.0419 90.7426C91.6811 92.5776 87.4496 94.7506 83.1698 96.7653C83.1698 96.7653 91.5672 99.0677 95.7176 100.354C96.8298 100.71 97.9283 101.108 99.0109 101.546C101.767 102.653 104.417 104.011 106.926 105.602C111.404 108.48 115.118 112.104 116.641 116.552C107.134 117.802 98.2155 121.976 91.5459 125.899C88.1693 127.889 84.9092 130.071 81.7819 132.434C80.6024 133.328 79.6661 134.076 79.0214 134.609C78.477 135.057 69.8905 142.625 69.8905 142.625C69.8905 142.625 80.9672 143.803 86.4342 144.904C90.0692 145.638 94.9705 146.816 100.084 148.599C105.221 150.392 110.412 152.74 114.717 155.746C119.033 158.759 122.193 162.24 123.751 166.227C128.295 177.836 123.838 189.143 114.889 195.504C106.047 201.789 92.6019 203.284 79.1584 194.053ZM110.464 208.411C114.04 207.251 117.418 205.554 120.483 203.377C132.662 194.719 139.069 178.865 132.747 162.707C130.262 156.36 125.516 151.504 120.246 147.827C114.966 144.141 108.889 141.443 103.267 139.482C99.8528 138.299 96.3822 137.284 92.8683 136.44C94.0415 135.673 95.2323 134.934 96.4396 134.222C103.874 129.851 113.234 125.836 122.211 125.836C135.743 125.836 145.82 129.988 155.441 134.443C156.315 134.848 157.194 135.26 158.076 135.673C166.674 139.708 175.703 143.944 186.194 143.944C196.368 143.944 204.294 141.066 209.755 138.091C204.894 178.792 170.259 210.342 128.249 210.342C122.143 210.342 116.192 209.676 110.464 208.411ZM199.321 132.161C195.706 133.396 191.322 134.286 186.196 134.286C177.967 134.286 170.896 130.989 161.917 126.803L159.501 125.679C150.513 121.517 140.113 117.105 126.575 116.305C124.761 107.343 117.966 101.219 112.149 97.478C111.513 97.0691 110.867 96.6743 110.213 96.294C110.792 96.1587 111.391 96.0235 111.997 95.8999C119.815 94.2909 129.152 93.8891 137.058 97.6094C146.441 102.025 151.735 107.109 157.242 112.398L157.431 112.579C163.097 118.02 169.091 123.724 179.546 127.9C185.357 130.22 192.874 131.468 199.321 132.161Z" fill="url(#paint0_linear_9177_780)"/>
<defs>
<linearGradient id="paint0_linear_9177_780" x1="34.8553" y1="129.946" x2="221.645" y2="126.529" gradientUnits="userSpaceOnUse">
<stop stop-color="#29CCB9"/>
<stop offset="0.49" stop-color="#0091FF"/>
<stop offset="1" stop-color="#FF66B7"/>
</linearGradient>
</defs>
</svg>

<svg xmlns="http://www.w3.org/2000/svg" fill="none" viewBox="0 0 256 256"><path fill="#000" d="M128 256c70.692 0 128-57.308 128-128S198.692 0 128 0 0 57.308 0 128s57.308 128 128 128"/><path fill="url(#paint0_linear_9177_780)" fill-rule="evenodd" d="M79.158 194.053c-20.031-14.97-33-38.871-33-65.803 0-45.338 36.755-82.092 82.091-82.092 37.419 0 78.281 22.362 88.162 56.609-11.04-38.27-46.326-66.267-88.16-66.267-50.672 0-91.751 41.079-91.751 91.75 0 50.673 41.08 91.75 91.749 91.75C178.923 220 220 178.923 220 128.25v-4.829h-5.042l-.672-.01q-5.547-.102-11.075-.577c-6.884-.599-14.735-1.766-20.082-3.902-8.602-3.436-13.459-7.991-19.009-13.32l-.32-.309c-5.56-5.339-11.807-11.338-22.631-16.432-10.661-5.018-22.452-4.213-31.118-2.43a79 79 0 0 0-10.843 3.067c-1.34.485-2.413.918-3.166 1.235-4.36 1.835-8.592 4.008-12.872 6.022 0 0 8.397 2.303 12.548 3.589q1.668.535 3.293 1.192a48.6 48.6 0 0 1 7.915 4.056c4.478 2.878 8.192 6.502 9.715 10.95-9.507 1.25-18.425 5.424-25.095 9.347a103 103 0 0 0-9.764 6.535 85 85 0 0 0-2.76 2.175c-.545.448-9.132 8.016-9.132 8.016s11.077 1.178 16.544 2.279c3.635.734 8.537 1.912 13.65 3.695 5.137 1.793 10.328 4.141 14.633 7.147 4.316 3.013 7.476 6.494 9.034 10.481 4.544 11.609.087 22.916-8.862 29.277-8.842 6.285-22.287 7.78-35.73-1.451m31.306 14.358a37 37 0 0 0 10.019-5.034c12.179-8.658 18.586-24.512 12.264-40.67-2.485-6.347-7.231-11.203-12.501-14.88-5.28-3.686-11.357-6.384-16.979-8.345a111 111 0 0 0-10.399-3.042 91 91 0 0 1 3.572-2.218c7.434-4.371 16.794-8.386 25.771-8.386 13.532 0 23.609 4.152 33.23 8.607q1.311.609 2.635 1.23c8.598 4.035 17.627 8.271 28.118 8.271 10.174 0 18.1-2.878 23.561-5.853-4.861 40.701-39.496 72.251-81.506 72.251a82.4 82.4 0 0 1-17.785-1.931m88.857-76.25c-3.615 1.235-7.999 2.125-13.125 2.125-8.229 0-15.3-3.297-24.279-7.483l-2.416-1.124c-8.988-4.162-19.388-8.574-32.926-9.374-1.814-8.962-8.609-15.086-14.426-18.827a51 51 0 0 0-1.936-1.184c.579-.135 1.178-.27 1.784-.394 7.818-1.61 17.155-2.01 25.061 1.71 9.383 4.415 14.677 9.499 20.184 14.788l.189.181c5.666 5.441 11.66 11.145 22.115 15.321 5.811 2.32 13.328 3.568 19.775 4.261" clip-rule="evenodd"/><defs><linearGradient id="paint0_linear_9177_780" x1="34.855" x2="221.645" y1="129.946" y2="126.529" gradientUnits="userSpaceOnUse"><stop stop-color="#29CCB9"/><stop offset=".49" stop-color="#0091FF"/><stop offset="1" stop-color="#FF66B7"/></linearGradient></defs></svg>
